icons/svgs/store-solid.svg

<svg width="24" height="24" viewBox="0 0 24 24" fill="none" xmlns="http://www.w3.org/2000/svg">
<path d="M22.617 6.0625C23.7888 7.89844 22.7732 10.4375 20.5857 10.75C20.4295 10.75 20.2732 10.75 20.117 10.75C19.1013 10.75 18.2029 10.3203 17.5779 9.61719C16.9529 10.3203 16.0545 10.75 15.0388 10.75C14.0232 10.75 13.0857 10.3203 12.4607 9.61719C11.8748 10.3203 10.9373 10.75 9.92165 10.75C8.90602 10.75 8.00758 10.3203 7.38258 9.61719C6.75758 10.3203 5.85915 10.75 4.84352 10.75C4.68727 10.75 4.53102 10.75 4.37477 10.75C2.18727 10.4375 1.17165 7.89844 2.34352 6.0625L4.57008 2.54688C4.7654 2.19531 5.11696 2 5.50758 2H19.4529C19.8435 2 20.1951 2.19531 20.3904 2.54688L22.617 6.0625ZM20.742 11.9609C20.9373 11.9609 21.0935 11.9219 21.2498 11.8828V17V19.5C21.2498 20.9062 20.117 22 18.7498 22H6.24977C4.84352 22 3.74977 20.9062 3.74977 19.5V17V11.8828C3.86696 11.9219 4.02321 11.9609 4.21852 11.9609C4.41383 12 4.60915 12 4.84352 12C5.31227 12 5.78102 11.9609 6.24977 11.8047V17H18.7498V11.8047C19.1795 11.9609 19.6482 12 20.117 12C20.3123 12 20.5466 12 20.742 11.9609Z" fill="black"/>
</svg>

<svg xmlns="http://www.w3.org/2000/svg" width="24" height="24" fill="currentColor" class="icon-store-solid" viewBox="0 0 24 24">
  <mask id="a" width="23" height="20" x="1" y="2" maskUnits="userSpaceOnUse" style="mask-type:alpha">
    <path d="M22.617 6.063c1.172 1.835.156 4.375-2.031 4.687h-.469a3.37 3.37 0 0 1-2.54-1.133 3.37 3.37 0 0 1-2.538 1.133 3.45 3.45 0 0 1-2.578-1.133c-.586.703-1.524 1.133-2.54 1.133a3.37 3.37 0 0 1-2.538-1.133 3.37 3.37 0 0 1-2.54 1.133h-.468c-2.188-.312-3.203-2.852-2.031-4.687L4.57 2.547c.195-.352.547-.547.938-.547h13.945c.39 0 .742.195.937.547zm-1.875 5.898c.195 0 .351-.04.508-.078V19.5c0 1.406-1.133 2.5-2.5 2.5H6.25a2.47 2.47 0 0 1-2.5-2.5v-7.617c.117.039.273.078.469.078.195.039.39.039.625.039.468 0 .937-.04 1.406-.195V17h12.5v-5.195c.43.156.898.195 1.367.195.195 0 .43 0 .625-.04"/>
  </mask>
  <g mask="url(#a)">
    <path d="M0 0h24v24H0z"/>
  </g>
</svg>
